img/svg/tab-icons/list-ico.svg

<svg width="24" height="24" viewBox="0 0 24 24" fill="#E0E0E0" xmlns="http://www.w3.org/2000/svg">
<path d="M14.2246 22.125H4.99548C3.96161 22.125 3.12048 21.2839 3.12048 20.25V6.09375C3.12048 5.05988 3.96161 4.21875 4.99548 4.21875H7.9434V4.6875C7.9434 6.23831 9.20509 7.5 10.7559 7.5C12.3067 7.5 13.5684 6.23831 13.5684 4.6875V4.21875H16.5215C17.5554 4.21875 18.3965 5.05988 18.3965 6.09375V12.9375C18.3965 13.4553 18.8162 13.875 19.334 13.875C19.8518 13.875 20.2715 13.4553 20.2715 12.9375V6.09375C20.2715 4.026 18.5893 2.34375 16.5215 2.34375H13.5684V0.9375C13.5684 0.419719 13.1487 0 12.6309 0H8.8809C8.36312 0 7.9434 0.419719 7.9434 0.9375V2.34375H4.99548C2.92773 2.34375 1.24548 4.026 1.24548 6.09375V20.25C1.24548 22.3177 2.92773 24 4.99548 24H14.2247C14.7424 24 15.1622 23.5803 15.1622 23.0625C15.1622 22.5447 14.7424 22.125 14.2246 22.125ZM9.81836 1.875H11.6934V4.6875C11.6934 5.20444 11.2728 5.625 10.7559 5.625C10.2389 5.625 9.81836 5.20444 9.81836 4.6875V1.875ZM21.9329 19.1995L16.7972 14.0525C16.6882 13.9432 16.5538 13.8624 16.406 13.8176L12.7158 12.6967C12.3887 12.5972 12.0333 12.684 11.7887 12.9227C11.5439 13.1615 11.4486 13.5145 11.5398 13.844L12.5881 17.628C12.6312 17.7837 12.7139 17.9257 12.828 18.04L17.9545 23.1762C18.5028 23.7245 19.2231 23.9986 19.9433 23.9986C20.6635 23.9986 21.3837 23.7245 21.9321 23.1762C23.0287 22.0796 23.0287 20.2954 21.9329 19.1995ZM13.8019 14.9862L15.6361 15.5433L19.1012 19.0163L17.7752 20.3423L14.3293 16.8899L13.8019 14.9862ZM20.6063 21.8504C20.2408 22.216 19.646 22.216 19.2811 21.8511L19.0998 21.6695L20.4256 20.3437L20.6062 20.5247C20.9718 20.8901 20.9718 21.4849 20.6063 21.8504Z"/>
</svg>

<svg width="24" height="24" fill="#E0E0E0" xmlns="http://www.w3.org/2000/svg"><path d="M14.225 22.125h-9.23A1.877 1.877 0 013.12 20.25V6.094c0-1.034.842-1.875 1.875-1.875h2.948v.468A2.816 2.816 0 0010.756 7.5a2.816 2.816 0 002.812-2.813V4.22h2.954c1.033 0 1.875.84 1.875 1.875v6.843a.937.937 0 101.875 0V6.095a3.754 3.754 0 00-3.75-3.75h-2.954V.938A.937.937 0 0012.631 0H8.88a.937.937 0 00-.938.938v1.406H4.995a3.754 3.754 0 00-3.75 3.75V20.25A3.754 3.754 0 004.995 24h9.23a.938.938 0 100-1.875zM9.818 1.875h1.875v2.813a.939.939 0 01-1.875 0V1.874zM21.933 19.2l-5.136-5.147a.936.936 0 00-.391-.235l-3.69-1.121a.937.937 0 00-1.176 1.147l1.048 3.784a.937.937 0 00.24.412l5.127 5.136a2.804 2.804 0 001.988.823c.72 0 1.44-.274 1.99-.823a2.815 2.815 0 000-3.976zm-8.131-4.214l1.834.557 3.465 3.473-1.326 1.326-3.446-3.452-.527-1.904zm6.804 6.864a.938.938 0 01-1.325.001l-.181-.181 1.326-1.326.18.18a.938.938 0 010 1.326z"/></svg>
